X: 801
T: Clancy's fancy reel
C: anon.
O: Ireland
B: Francis O'Neill: "The Dance Music of Ireland" (1907) no. 801
R: Reel
Z: Transcribed by Frank Nordberg - http://www.musicaviva.com
F: http://www.musicaviva.com/abc/tunes/ireland/oneill-1001/oneill-1001-080
1.abc
m: Tn = (3n/o/n/
M: C|
L: 1/8
K: G
(dc)|BTG-G2 dBGA|(3BAG (Bd) egdB|cA (3AAA (fc)AB|cde(f ge)dc|BTG-G2 dTG-G
2|BGB(d eg)dB|cde(f ge)d(c|BG)AF G2||
(Bc)|(dTgg2) (bTgg2)|d(ggf) (3efg (dB)|cA (3AAA eA (3AAA|cde(f gf)ef|(dTg
g2) (bTgg2)|dgf(g ec)dB|cde(f ge)d(c|BG)AFG2|]
W:
W:
W: From Musica Viva - http://www.musicaviva.com
W: the Internet center for free sheet music downloads.


